X:19028
T:Xiraldilla (CT 248) (Arrg.)
R:Xiraldilla
C:Tradicional
S:Música Tradicional Asturiana, (C) Tello & Tito. Asturies, 2001.
S:http://pagina.de/MusTradAst <telloytito@asturies.org>
N:Xiraldilla, dictada por Estanilao Lana Lana, de veintiún años, de Somiedu.
O:Somiedu
A:Asturies
G:Arrg.
Z:Cancioneru de Torner 248
M:3/8
L:1/8
Q:3/8=88
W:Eres pájaro diestro,
W:pero no sabes
W:la distreza que tienen
W:las otras aves.
W:
W:¡Ai! amor mío,
W:¿cómo no vienes
W:a cumplir la palabra
W:que dada tienes?
K:G
|"G"d2 B|"Bm"dcB|"Am"A G2|"D"AFG|"G"A G2-|"G"G2 z|
"G"d2 B|"Bm"dcB|"Am"A G2|"D"AFG|"G"A G2|
|"G"GBB|"Am"(cB/A/)G|"G"GBB|"G"c B2-|"G"B2 z|
"G"d2 B|"Bm"dcB|"Am"A G2|"D"AFG|"G"A G2-|"G"G2 z||


